Yaru++/actions/scalable/help-about.svg

<svg height="256" width="256" xmlns="http://www.w3.org/2000/svg" xmlns:xlink="http://www.w3.org/1999/xlink"><linearGradient id="a" gradientUnits="userSpaceOnUse" x1="124.20490827641" x2="127.0000002" y1="26.76566823249" y2="236.0222729"><stop offset="0" stop-color="#fdc92b"/><stop offset="1" stop-color="#ffda64"/></linearGradient><filter id="b" color-interpolation-filters="sRGB" height="1.024" width="1.024" x="-.012" y="-.012"><feGaussianBlur stdDeviation="1.14"/></filter><filter id="c" color-interpolation-filters="sRGB" height="1.096" width="1.096" x="-.048" y="-.048"><feGaussianBlur stdDeviation="4.56"/></filter><g stroke-width="16.285713"><path d="m127 243c-11.72571 0-29.802858-67.602-38.108578-75.89142-8.289422-8.30573-75.891422-26.38285-75.891422-38.10858 0-11.72574 67.602-29.802847 75.891422-38.108581 8.305715-8.289419 26.382868-75.891419 38.108578-75.891419s29.80286 67.602 38.10857 75.891419c8.28943 8.305734 75.89143 26.382841 75.89143 38.108581 0 11.72573-67.602 29.80285-75.89143 38.10858-8.30571 8.28942-26.38286 75.89142-38.10857 75.89142z" filter="url(#c)" opacity=".1"/><path d="m127 243c-11.72571 0-29.802858-67.602-38.108578-75.89142-8.289422-8.30573-75.891422-26.38285-75.891422-38.10858 0-11.72574 67.602-29.802847 75.891422-38.108581 8.305715-8.289419 26.382868-75.891419 38.108578-75.891419s29.80286 67.602 38.10857 75.891419c8.28943 8.305734 75.89143 26.382841 75.89143 38.108581 0 11.72573-67.602 29.80285-75.89143 38.10858-8.30571 8.28942-26.38286 75.89142-38.10857 75.89142z" filter="url(#b)" opacity=".1"/><path d="m127 243c-11.72571 0-29.802858-67.602-38.108578-75.89142-8.289422-8.30573-75.891422-26.38285-75.891422-38.10858 0-11.72574 67.602-29.802847 75.891422-38.108581 8.305715-8.289419 26.382868-75.891419 38.108578-75.891419s29.80286 67.602 38.10857 75.891419c8.28943 8.305734 75.89143 26.382841 75.89143 38.108581 0 11.72573-67.602 29.80285-75.89143 38.10858-8.30571 8.28942-26.38286 75.89142-38.10857 75.89142z" opacity=".1"/></g><path d="m127 241c-11.52 0-29.280001-66.416-37.440007-74.55999-8.143993-8.16002-74.559993-25.91999-74.559993-37.44001s66.416-29.279989 74.559993-37.440009c8.160001-8.14399 25.920007-74.55999 37.440007-74.55999s29.28 66.416 37.44 74.55999c8.144 8.16002 74.56 25.919989 74.56 37.440009s-66.416 29.27999-74.56 37.44001c-8.16 8.14399-25.92 74.55999-37.44 74.55999z" fill="url(#a)" stroke-width="15.999999"/><path d="m127 17c-11.52 0-29.279452 66.416557-37.439453 74.560547-8.143993 8.16002-74.560547 25.919433-74.560547 37.439453 0 .32818.061096.66206.166016 1 3.57801-11.52475 66.482544-28.5119 74.394531-36.439453 8.160001-8.14399 25.919453-74.560547 37.439453-74.560547s29.27945 66.416557 37.43945 74.560547c7.912 7.927553 70.81652 24.914703 74.39453 36.439453.10492-.33794.16602-.67182.16602-1 0-11.52002-66.41655-29.279433-74.56055-37.439453-8.16-8.14399-25.91945-74.560547-37.43945-74.560547z" fill="#fff" opacity=".3" stroke-width="15.999999"/><path d="m15.166016 128c-.10492.33794-.166016.67182-.166016 1 0 11.52002 66.416554 29.27943 74.560547 37.43945 8.160006 8.14399 25.919453 74.56055 37.439453 74.56055s29.27945-66.41656 37.43945-74.56055c8.144-8.16002 74.56055-25.91943 74.56055-37.43945 0-.32818-.0611-.66206-.16602-1-3.57801 11.52475-66.48253 28.5119-74.39453 36.43945-8.16 8.14399-25.91945 74.56055-37.43945 74.56055s-29.279447-66.41656-37.439453-74.56055c-7.911987-7.92755-70.816521-24.9147-74.394531-36.43945z" opacity=".2" stroke-width="15.999999"/></svg>

<?xml version="1.0" encoding="UTF-8" standalone="no"?>
<svg
   xmlns:dc="http://purl.org/dc/elements/1.1/"
   xmlns:cc="http://creativecommons.org/ns#"
   xmlns:rdf="http://www.w3.org/1999/02/22-rdf-syntax-ns#"
   xmlns:svg="http://www.w3.org/2000/svg"
   xmlns="http://www.w3.org/2000/svg"
   xmlns:xlink="http://www.w3.org/1999/xlink"
   xmlns:sodipodi="http://sodipodi.sourceforge.net/DTD/sodipodi-0.dtd"
   xmlns:inkscape="http://www.inkscape.org/namespaces/inkscape"
   width="256"
   height="256"
   version="1.1"
   id="svg4"
   sodipodi:docname="help-about.svg"
   inkscape:version="0.92.4 (5da689c313, 2019-01-14)">
  <metadata
     id="metadata10">
    <rdf:RDF>
      <cc:Work
         rdf:about="">
        <dc:format>image/svg+xml</dc:format>
        <dc:type
           rdf:resource="http://purl.org/dc/dcmitype/StillImage" />
        <dc:title></dc:title>
      </cc:Work>
    </rdf:RDF>
  </metadata>
  <defs
     id="defs8">
    <linearGradient
       inkscape:collect="always"
       id="linearGradient1947">
      <stop
         style="stop-color:#fdc92b;stop-opacity:1"
         offset="0"
         id="stop1943" />
      <stop
         style="stop-color:#ffda64;stop-opacity:1"
         offset="1"
         id="stop1945" />
    </linearGradient>
    <linearGradient
       inkscape:collect="always"
       xlink:href="#linearGradient1947"
       id="linearGradient1951"
       gradientUnits="userSpaceOnUse"
       x1="23.438486"
       y1="3.4618433"
       x2="24"
       y2="45.5"
       gradientTransform="matrix(4.9777778,0,0,4.9777778,7.5333333,9.5333834)" />
    <linearGradient
       inkscape:collect="always"
       xlink:href="#linearGradient927"
       id="linearGradient1959"
       x1="24.205006"
       y1="2.3980932"
       x2="24"
       y2="43.75864"
       gradientUnits="userSpaceOnUse" />
    <linearGradient
       inkscape:collect="always"
       id="linearGradient927">
      <stop
         style="stop-color:#ffffff;stop-opacity:1;"
         offset="0"
         id="stop923" />
      <stop
         id="stop933"
         offset="0.125"
         style="stop-color:#ffffff;stop-opacity:0.09803922" />
      <stop
         id="stop931"
         offset="0.92500001"
         style="stop-color:#ffffff;stop-opacity:0.09803922" />
      <stop
         style="stop-color:#ffffff;stop-opacity:0.49803922"
         offset="1"
         id="stop925" />
    </linearGradient>
    <clipPath
       clipPathUnits="userSpaceOnUse"
       id="clipPath994-59">
      <path
         style="color:#000000;display:inline;overflow:visible;visibility:visible;fill:#cdcdcd;fill-opacity:1;fill-rule:nonzero;stroke:none;stroke-width:2;stroke-miterlimit:4;stroke-dasharray:none;stroke-opacity:1;marker:none;enable-background:accumulate"
         d="m 335.73108,62 c -8.82418,0 -9.77365,0.90635 -9.7304,9.74838 V 84 96.25162 c -0.0433,8.84203 0.90622,9.74838 9.7304,9.74838 h 16.53919 c 8.82418,0 9.7304,-0.90625 9.7304,-9.74838 V 84 71.74838 C 362.00067,62.90625 361.09445,62 352.27027,62 Z"
         id="path996-84"
         inkscape:connector-curvature="0"
         sodipodi:nodetypes="scccssscsss" />
    </clipPath>
    <filter
       inkscape:collect="always"
       style="color-interpolation-filters:sRGB"
       id="filter2043"
       x="-0.012"
       width="1.024"
       y="-0.012"
       height="1.024">
      <feGaussianBlur
         inkscape:collect="always"
         stdDeviation="1.14"
         id="feGaussianBlur2045" />
    </filter>
    <filter
       inkscape:collect="always"
       style="color-interpolation-filters:sRGB"
       id="filter2057"
       x="-0.048"
       width="1.096"
       y="-0.048"
       height="1.096">
      <feGaussianBlur
         inkscape:collect="always"
         stdDeviation="4.56"
         id="feGaussianBlur2059" />
    </filter>
  </defs>
  <sodipodi:namedview
     pagecolor="#ffffff"
     bordercolor="#666666"
     borderopacity="1"
     objecttolerance="10"
     gridtolerance="10"
     guidetolerance="10"
     inkscape:pageopacity="0"
     inkscape:pageshadow="2"
     inkscape:window-width="1920"
     inkscape:window-height="1016"
     id="namedview6"
     showgrid="false"
     inkscape:zoom="3.2773438"
     inkscape:cx="128"
     inkscape:cy="128"
     inkscape:window-x="0"
     inkscape:window-y="27"
     inkscape:window-maximized="1"
     inkscape:current-layer="svg4" />
  <path
     inkscape:connector-curvature="0"
     style="overflow:visible;opacity:0.1;fill:#000000;fill-opacity:1;stroke-width:16.2857132;filter:url(#filter2057)"
     id="path2047"
     overflow="visible"
     d="M 127,243 C 115.27429,243 97.197142,175.398 88.891422,167.10858 80.602,158.80285 13,140.72573 13,129 13,117.27426 80.602,99.197153 88.891422,90.891419 97.197137,82.602 115.27429,15 127,15 138.72571,15 156.80286,82.602 165.10857,90.891419 173.398,99.197153 241,117.27426 241,129 c 0,11.72573 -67.602,29.80285 -75.89143,38.10858 C 156.80286,175.398 138.72571,243 127,243 Z" />
  <path
     d="M 127,243 C 115.27429,243 97.197142,175.398 88.891422,167.10858 80.602,158.80285 13,140.72573 13,129 13,117.27426 80.602,99.197153 88.891422,90.891419 97.197137,82.602 115.27429,15 127,15 138.72571,15 156.80286,82.602 165.10857,90.891419 173.398,99.197153 241,117.27426 241,129 c 0,11.72573 -67.602,29.80285 -75.89143,38.10858 C 156.80286,175.398 138.72571,243 127,243 Z"
     overflow="visible"
     id="path2041"
     style="overflow:visible;opacity:0.1;fill:#000000;fill-opacity:1;stroke-width:16.2857132;filter:url(#filter2043)"
     inkscape:connector-curvature="0" />
  <path
     inkscape:connector-curvature="0"
     style="overflow:visible;opacity:0.1;fill:#000000;fill-opacity:1;stroke-width:16.2857132"
     id="path2037"
     overflow="visible"
     d="M 127,243 C 115.27429,243 97.197142,175.398 88.891422,167.10858 80.602,158.80285 13,140.72573 13,129 13,117.27426 80.602,99.197153 88.891422,90.891419 97.197137,82.602 115.27429,15 127,15 138.72571,15 156.80286,82.602 165.10857,90.891419 173.398,99.197153 241,117.27426 241,129 c 0,11.72573 -67.602,29.80285 -75.89143,38.10858 C 156.80286,175.398 138.72571,243 127,243 Z" />
  <path
     d="M 127,241 C 115.48,241 97.719999,174.584 89.559993,166.44001 81.416,158.27999 15,140.52002 15,129 15,117.47998 81.416,99.720011 89.559993,91.559991 97.719994,83.416001 115.48,17.000001 127,17.000001 c 11.52,0 29.28,66.416 37.44,74.55999 C 172.584,99.720011 239,117.47998 239,129 c 0,11.52002 -66.416,29.27999 -74.56,37.44001 C 156.28,174.584 138.52,241 127,241 Z"
     overflow="visible"
     id="path2"
     style="overflow:visible;fill:url(#linearGradient1951);fill-opacity:1;stroke-width:15.99999905"
     inkscape:connector-curvature="0" />
  <path
     style="overflow:visible;fill:#ffffff;fill-opacity:1;stroke-width:15.99999905;opacity:0.3"
     d="M 127 17 C 115.48 17 97.720548 83.416557 89.560547 91.560547 C 81.416554 99.720567 15 117.47998 15 129 C 15 129.32818 15.061096 129.66206 15.166016 130 C 18.744026 118.47525 81.64856 101.4881 89.560547 93.560547 C 97.720548 85.416557 115.48 19 127 19 C 138.52 19 156.27945 85.416557 164.43945 93.560547 C 172.35145 101.4881 235.25597 118.47525 238.83398 130 C 238.9389 129.66206 239 129.32818 239 129 C 239 117.47998 172.58345 99.720567 164.43945 91.560547 C 156.27945 83.416557 138.52 17 127 17 z "
     id="path2019" />
  <path
     style="overflow:visible;fill:#000000;fill-opacity:1;stroke-width:15.99999905;opacity:0.2"
     d="M 15.166016 128 C 15.061096 128.33794 15 128.67182 15 129 C 15 140.52002 81.416554 158.27943 89.560547 166.43945 C 97.720553 174.58344 115.48 241 127 241 C 138.52 241 156.27945 174.58344 164.43945 166.43945 C 172.58345 158.27943 239 140.52002 239 129 C 239 128.67182 238.9389 128.33794 238.83398 128 C 235.25597 139.52475 172.35145 156.5119 164.43945 164.43945 C 156.27945 172.58344 138.52 239 127 239 C 115.48 239 97.720553 172.58344 89.560547 164.43945 C 81.64856 156.5119 18.744026 139.52475 15.166016 128 z "
     id="path2028" />
</svg>
